X:68
T:Mon mari est bien malade
R:Chanson
O:France
B:Le livre des Chansons (Henri Davenson) n68
Z:<anamnese@caramail.com> -- http://anamnese.fr.st
M:2/4
L:1/8
Q:1/4=90
K:C
c B | A e e ^d2 | e>e c B | A e e ^d2 | e2 e e | e d e f |
e2 B B | e d c B | A2 d d | c2 A c | B2 d d | c2 B B | A2 z2 ||
W:Mon mari est bien malade, en grand danger de mourir.
W:Je vais chercher le mdecin pour venir autour de lui.
W:
W:Je n'tais pas  moiti chemin que les cloches sonnaient pour lui.
W:Je m'assois sur une pierre : au lieu de pleurer je ris !
W:
W:Je retourne  la maison, je le trouve enseveli ;
W:Je me suis mise  pleurer, mais ce n'tait pas pour lui ! /.../
